X:1
T:Lowry, LM
T:Lowry, LM
T:George Frederick Root (1820-1895)
T:Public Domain Courtesy of the Cyber Hymnal™
C:George Frederick Root (1820-1895)
Z:Public Domain
Z:Courtesy of the Cyber Hymnal™
%%score ( 1 2 ) ( 3 4 )
L:1/8
Q:1/4=95
M:3/4
K:E
V:1 treble 
V:2 treble 
V:3 bass 
V:4 bass 
V:1
 [EB][Ec] [DB] | [EB]3 [FA] [DF][DG] | E3 [B,E] [B,E][EG] | B2 c2 [Fd]2 | e3 c [FB][E^A] | %5
 [DB]2 z [Ac] [GB][EG] | [FA]3 [GB] [FA][DF] | [EG]3 E GB | e4 [Ac]2 x | [GB]2 [EG]2 [DF]2 | E3 |] %11
V:2
 x3 | x6 | E3 x3 | E4 x2 | G4 x2 | x6 | x6 | x3 E GB | G>A B2 x3 | x6 | E3 |] %11
V:3
 [E,G,][A,,A,] [B,,F,] | [E,G,]3 [B,,B,] [B,,B,][B,,B,] | [E,G,]3 [E,G,] [E,G,][E,B,] | %3
 [E,G,]2 [C,^A,]2 [B,,B,]2 | B,3 E DC | [B,,B,]2 z [B,,B,] [B,,B,][B,,B,] | %6
 [B,,B,]3 [B,,B,] [B,,B,][B,,B,] | [E,B,]3 E, G,B, | B,3 z E [A,E]2 | E2 B,2 [B,,A,]2 | [E,G,]3 |] %11
V:4
 x3 | x6 | x6 | x6 | E,4 F,2 | x6 | x6 | x3 E, G,B, | E,>F, G,2 x3 | B,4 x2 | x3 |] %11

